**kern	**text	**kern	**text	**kern	**text	**kern	**text	**kern	**text
*staff5	*staff5	*staff4	*staff4	*staff3	*staff3	*staff2	*staff2	*staff1	*staff1
*I"Basso	*	*I"Tenore	*	*I"Alto	*	*I"Soprano II	*	*I"Soprano I	*
=1-	=1-	=1-	=1-	=1-	=1-	=1-	=1-	=1-	=1-
*clefF4	*	*clefGv2	*	*clefGv2	*	*clefG2	*	*clefG2	*
*k[]	*	*k[]	*	*k[]	*	*k[]	*	*k[]	*
*met(c|)	*	*met(c|)	*	*met(c|)	*	*met(c|)	*	*met(c|)	*
*M2/2	*	*M2/2	*	*M2/2	*	*M2/2	*	*M2/2	*
1C	Ca-	1r	.	1r	.	1r	.	1r	.
=2	=2	=2	=2	=2	=2	=2	=2	=2	=2
[1E	-li-	[1G	Ca-	1r	.	1r	.	1r	.
=3	=3	=3	=3	=3	=3	=3	=3	=3	=3
2E\]	.	1G]	.	1r	.	1r	.	1r	.
2E\	-ga-	.	.	.	.	.	.	.	.
=4	=4	=4	=4	=4	=4	=4	=4	=4	=4
[1F	-ve-	[1A	-li-	1r	.	1r	.	[1c	Ca-
=5	=5	=5	=5	=5	=5	=5	=5	=5	=5
1F]	.	2A/]	.	1r	.	1r	.	1c]	.
.	.	2A/	-ga-	.	.	.	.	.	.
=6	=6	=6	=6	=6	=6	=6	=6	=6	=6
[1E	-runt	1c	-ve-	[1G	Ca-	1r	.	[1e	-li-
=7	=7	=7	=7	=7	=7	=7	=7	=7	=7
1E]	.	1B	-runt	1G]	.	1r	.	2e/]	.
.	.	.	.	.	.	.	.	2e/	-ga-
=8	=8	=8	=8	=8	=8	=8	=8	=8	=8
[1D	o-	[1d	o-	[1A	-li-	1r	.	[1f	-ve-
=9	=9	=9	=9	=9	=9	=9	=9	=9	=9
2D\]	.	2d\]	.	2A/]	.	1r	.	2f/]	.
2D\	-cu-	2d\	-cu-	2A/	-ga-	.	.	2f/	.
=10	=10	=10	=10	=10	=10	=10	=10	=10	=10
1C	-li	[1G	-li	1c	-ve-	1r	.	1e	-runt
=11	=11	=11	=11	=11	=11	=11	=11	=11	=11
1E	me-	1G]	.	1B	-runt	1r	.	2.g/	o-
.	.	.	.	.	.	.	.	4g/	-cu-
=12	=12	=12	=12	=12	=12	=12	=12	=12	=12
!!linebreak:original
1D	-i	1A	me-	[1d	o-	1r	.	[1f	-li
=13	=13	=13	=13	=13	=13	=13	=13	=13	=13
1D	a	1A	-i	2d\]	.	1r	.	1f]	.
.	.	.	.	2d\	-cu-	.	.	.	.
=14	=14	=14	=14	=14	=14	=14	=14	=14	=14
1F	fle-	1A	a	1c	-li	1r	.	1a	me-
=15	=15	=15	=15	=15	=15	=15	=15	=15	=15
1E	-tu	1c	fle-	1e	me-	1r	.	[1g	-i
=16	=16	=16	=16	=16	=16	=16	=16	=16	=16
1G	a	1B	-tu	2d\	-i	1r	.	1g]	.
.	.	.	.	2d\	a	.	.	.	.
=17	=17	=17	=17	=17	=17	=17	=17	=17	=17
1D	fle-	1d	a	1f	fle-	1r	.	1a	a
=18	=18	=18	=18	=18	=18	=18	=18	=18	=18
1E	-tu	1G	fle-	1e	-tu	1r	.	2cc\	fle-
.	.	.	.	.	.	.	.	2b\	-tu
=19	=19	=19	=19	=19	=19	=19	=19	=19	=19
[1F	me-	2A/	-tu	[1c	me-	1r	.	[1a	me-
.	.	[2c\	me-	.	.	.	.	.	.
=20	=20	=20	=20	=20	=20	=20	=20	=20	=20
1F]	.	2c\]	.	2c\]	.	1r	.	1a]	.
.	.	4B\	.	2d\	.	.	.	.	.
.	.	4A/	.	.	.	.	.	.	.
=21	=21	=21	=21	=21	=21	=21	=21	=21	=21
[1E	-o:	[1B	-o:	[1e	-o:	1r	.	[1g	-o:
=22	=22	=22	=22	=22	=22	=22	=22	=22	=22
1E]	.	1B]	.	1e]	.	1r	.	1g]	.
=23	=23	=23	=23	=23	=23	=23	=23	=23	=23
2r	.	2r	.	2r	.	1r	.	2r	.
[2A\	qui-	[2c#\	qui-	[2e\	qui-	.	.	[2a/	qui-
=24	=24	=24	=24	=24	=24	=24	=24	=24	=24
!!pagebreak:original
2A\]	.	2c#\]	.	2e\]	.	1r	.	2a/]	.
2D\	-a	2d\	-a	2f\	-a	.	.	2a/	-a
=25	=25	=25	=25	=25	=25	=25	=25	=25	=25
2G\	e-	2B\	e-	2d\	e-	1r	.	2g/	e-
2C/	-lon-	2c\	-lon-	2e\	-lon-	.	.	2g/	-lon-
=26	=26	=26	=26	=26	=26	=26	=26	=26	=26
2D\	-ga-	2A/	-ga-	2d\	-ga-	1r	.	2f/	-ga-
2E\	-tus	2G/	-tus	2c\	-tus	.	.	2e/	-tus
=27	=27	=27	=27	=27	=27	=27	=27	=27	=27
1C	est	1c	est	1e	est	1r	.	1g	est
=28	=28	=28	=28	=28	=28	=28	=28	=28	=28
1D	a	1A	a	1d	a	1r	.	1f	a
=29	=29	=29	=29	=29	=29	=29	=29	=29	=29
2AA/	me,	2A/	me,	2c#\	me,	1r	.	2e/	me,
[2D\	qui	[2A/	qui	[2d\	qui	.	.	[2f#/	qui
=30	=30	=30	=30	=30	=30	=30	=30	=30	=30
2D\]	.	2A/]	.	2d\]	.	1r	.	2f#/]	.
2G\	con-	2B\	con-	2d\	con-	.	.	2g/	con-
=31	=31	=31	=31	=31	=31	=31	=31	=31	=31
2F\	-so-	2c\	-so-	2f\	-so-	1r	.	2a/	-so-
2D\	-la-	2d\	-la-	2f\	-la-	.	.	2a/	-la-
=32	=32	=32	=32	=32	=32	=32	=32	=32	=32
1F	-ba-	[1A	-ba-	1c	-ba-	1r	.	1a	-ba-
=33	=33	=33	=33	=33	=33	=33	=33	=33	=33
1D	-tur	2A/]	.	1d	-tur	1r	.	1f	-tur
.	.	2B\	-tur	.	.	.	.	.	.
=34	=34	=34	=34	=34	=34	=34	=34	=34	=34
[1C	me:	[1c	me:	1G	me:	1r	.	1e	me:
=35	=35	=35	=35	=35	=35	=35	=35	=35	=35
1C]	.	1c]	.	1r	.	1r	.	2r	.
.	.	.	.	.	.	.	.	2e/	Vi-
=36	=36	=36	=36	=36	=36	=36	=36	=36	=36
!!linebreak:original
1E	Vi-	1r	.	1r	.	1r	.	1g	-de-
=37	=37	=37	=37	=37	=37	=37	=37	=37	=37
1G	-de-	2r	.	1B	Vi-	1r	.	1d	-te,
.	.	2G/	Vi-	.	.	.	.	.	.
=38	=38	=38	=38	=38	=38	=38	=38	=38	=38
1D	-te,	1A	-de-	1d	-de-	1r	.	1f	o-
=39	=39	=39	=39	=39	=39	=39	=39	=39	=39
1F	po-	2A/	-te,	1A	-te,	1r	.	1c	-mnes
.	.	[2c\	po-	.	.	.	.	.	.
=40	=40	=40	=40	=40	=40	=40	=40	=40	=40
1E	.	2c\]	.	[1e	po-	1r	.	2.g/	po-
.	.	2B\	.	.	.	.	.	.	.
.	.	.	.	.	.	.	.	4f/	.
=41	=41	=41	=41	=41	=41	=41	=41	=41	=41
[1A	.	[1c	.	2e\]	.	1r	.	4e/	.
.	.	.	.	.	.	.	.	4d/	.
.	.	.	.	2A/	.	.	.	[2e/	.
=42	=42	=42	=42	=42	=42	=42	=42	=42	=42
2A\]	.	2c\]	.	2.c\	.	1r	.	2e/]	.
2A\	-pu-	2A/	-pu-	.	.	.	.	2f#/	-pu-
.	.	.	.	4c\	-pu-	.	.	.	.
=43	=43	=43	=43	=43	=43	=43	=43	=43	=43
[1G	-li,	[1B	-li,	[1d	-li,	1r	.	[1g	-li,
=44	=44	=44	=44	=44	=44	=44	=44	=44	=44
1G]	.	1B]	.	1d]	.	1r	.	1g]	.
=45||	=45||	=45||	=45||	=45||	=45||	=45||	=45||	=45||	=45||
1r	.	1r	.	1d	Si	1r	.	1r	.
=46	=46	=46	=46	=46	=46	=46	=46	=46	=46
1G	Si	1r	.	1B	est	1r	.	1r	.
=47	=47	=47	=47	=47	=47	=47	=47	=47	=47
1E	est	2r	.	[1e	do-	1r	.	1g	Si
.	.	[2c\	Si	.	.	.	.	.	.
=48	=48	=48	=48	=48	=48	=48	=48	=48	=48
!!linebreak:original
1A	do-	2c\]	.	2e\]	.	1r	.	1e	est
.	.	[2A/	est	2c#\	-lor	.	.	.	.
=49	=49	=49	=49	=49	=49	=49	=49	=49	=49
1F#	-lor	2A/]	.	2.d\	si-	1r	.	1a	do-
.	.	[2d\	do-	.	.	.	.	.	.
.	.	.	.	4c\	.	.	.	.	.
=50	=50	=50	=50	=50	=50	=50	=50	=50	=50
[1G	si-	2d\]	.	4B\	.	1r	.	2g/	-lor
.	.	.	.	4c\	.	.	.	.	.
.	.	2B\	-lor	[2d\	.	.	.	[2g/	si-
=51	=51	=51	=51	=51	=51	=51	=51	=51	=51
2G\]	.	2B\	si-	2d\]	.	1r	.	2g/]	.
2D\	-mi-	2A/	-mi-	2d\	-mi-	.	.	2f/	-mi-
=52	=52	=52	=52	=52	=52	=52	=52	=52	=52
1E	-lis	1G#	-lis	1B	-lis	1r	.	1e	-lis
=53	=53	=53	=53	=53	=53	=53	=53	=53	=53
2r	.	2r	.	2r	.	1r	.	2r	.
[2D\	sic-	[2A/	sic-	[2d\	sic-	.	.	[2f#/	sic-
=54	=54	=54	=54	=54	=54	=54	=54	=54	=54
2D\]	.	2A/]	.	2d\]	.	1r	.	2f#/]	.
2G\	-ut	2B\	-ut	2d\	-ut	.	.	2g/	-ut
=55	=55	=55	=55	=55	=55	=55	=55	=55	=55
[1F	do-	1c	do-	1f	do-	1r	.	[1a	do-
=56	=56	=56	=56	=56	=56	=56	=56	=56	=56
2F\]	.	1A	-lor	1c	-lor	1r	.	2a/]	.
2E\	-lor	.	.	.	.	.	.	2g/	-lor
=57	=57	=57	=57	=57	=57	=57	=57	=57	=57
[1D	me-	[1A	me-	[1d	me-	1r	.	[1f	me-
=58	=58	=58	=58	=58	=58	=58	=58	=58	=58
1D]	.	2A/]	.	1d]	.	1r	.	1f]	.
.	.	2B\	.	.	.	.	.	.	.
=59	=59	=59	=59	=59	=59	=59	=59	=59	=59
[1C	-us.	[1c	-us.	[1G	-us.	1r	.	[1e	-us.
=60	=60	=60	=60	=60	=60	=60	=60	=60	=60
1C]	.	1c]	.	1G]	.	1r	.	1e]	.
!!pagebreak:original
=61||	=61||	=61||	=61||	=61||	=61||	=61||	=61||	=61||	=61||
!!pagebreak:original
1r	.	1r	.	1r	.	1r	.	[1g	O
=62	=62	=62	=62	=62	=62	=62	=62	=62	=62
1r	.	1r	.	1r	.	1r	.	2g/]	.
.	.	.	.	.	.	.	.	2e/	vos
=63	=63	=63	=63	=63	=63	=63	=63	=63	=63
1r	.	1r	.	1r	.	1r	.	1f	o-
=64	=64	=64	=64	=64	=64	=64	=64	=64	=64
1r	.	1r	.	1r	.	[1g	O	2e/	-mnes,
.	.	.	.	.	.	.	.	[2b\	qui
=65	=65	=65	=65	=65	=65	=65	=65	=65	=65
1r	.	1r	.	1r	.	2g/]	.	2b\]	.
.	.	.	.	.	.	2e/	vos	2cc\	tran-
=66	=66	=66	=66	=66	=66	=66	=66	=66	=66
1r	.	1r	.	1r	.	1f	o-	1a	-si-
=67	=67	=67	=67	=67	=67	=67	=67	=67	=67
1r	.	1r	.	2r	.	2e/	-mnes,	[1g	-tis
.	.	.	.	[2e\	O	[2b\	qui	.	.
=68	=68	=68	=68	=68	=68	=68	=68	=68	=68
1r	.	1r	.	2e\]	.	2b\]	.	2g/]	.
.	.	.	.	2c\	vos	2cc\	tran-	2a/	per
=69	=69	=69	=69	=69	=69	=69	=69	=69	=69
1r	.	1r	.	1d	o-	[1a	-si-	1f	vi-
=70	=70	=70	=70	=70	=70	=70	=70	=70	=70
1r	.	1r	.	2c\	-mnes,	2a/]	.	1e	-am,
.	.	.	.	2B\	qui	2g/	-tis	.	.
=71	=71	=71	=71	=71	=71	=71	=71	=71	=71
!!linebreak:original
1r	.	1r	.	2c\	.	1e	per	2r	.
.	.	.	.	2A/	tran-	.	.	2a/	at-
=72	=72	=72	=72	=72	=72	=72	=72	=72	=72
1r	.	1r	.	1d	-si-	1f	vi-	2a/	-ten-
.	.	.	.	.	.	.	.	2b\	-di-
=73	=73	=73	=73	=73	=73	=73	=73	=73	=73
1r	.	1r	.	1c	-tis	1e	-am,	1cc	-te
=74	=74	=74	=74	=74	=74	=74	=74	=74	=74
1r	.	1r	.	2r	.	2r	.	1r	.
.	.	.	.	2A/	per	2f/	at-	.	.
=75	=75	=75	=75	=75	=75	=75	=75	=75	=75
1r	.	1r	.	[1B-	vi-	[1f	-ten-	2r	.
.	.	.	.	.	.	.	.	2d/	at-
=76	=76	=76	=76	=76	=76	=76	=76	=76	=76
1r	.	1r	.	1B-]	.	2f/]	.	1d	-ten-
.	.	.	.	.	.	2g/	-di-	.	.
=77	=77	=77	=77	=77	=77	=77	=77	=77	=77
1r	.	1r	.	1A	-am,	1a	-te	2e/	-di-
.	.	.	.	.	.	.	.	2f/	-te
=78	=78	=78	=78	=78	=78	=78	=78	=78	=78
1r	.	1r	.	2c\	at-	2r	.	2e/	et
.	.	.	.	[2c\	-ten-	2e/	at-	2g/	vi-
=79	=79	=79	=79	=79	=79	=79	=79	=79	=79
1r	.	1r	.	2c\]	.	2e/	-ten-	1a	-de-
.	.	.	.	2d\	-di-	2f/	-di-	.	.
=80	=80	=80	=80	=80	=80	=80	=80	=80	=80
1r	.	1r	.	1e	-te	2g/	-te	2g/	-te
.	.	.	.	.	.	2a/	et	[2e/	et
=81	=81	=81	=81	=81	=81	=81	=81	=81	=81
1r	.	1r	.	2c\	et	2g/	.	2e/]	.
.	.	.	.	2c\	vi-	2e/	vi-	2g/	vi-
=82	=82	=82	=82	=82	=82	=82	=82	=82	=82
1r	.	1r	.	1F	-de-	1f	-de-	1a	-de-
=83	=83	=83	=83	=83	=83	=83	=83	=83	=83
1r	.	1r	.	[1c	-te.	[1e	-te.	[1g	-te.
=84	=84	=84	=84	=84	=84	=84	=84	=84	=84
1r	.	1r	.	1c]	.	1e]	.	1g]	.
!!linebreak:original
=85||	=85||	=85||	=85||	=85||	=85||	=85||	=85||	=85||	=85||
!!linebreak:original
1r	.	1r	.	1d	Si	1r	.	1r	.
=86	=86	=86	=86	=86	=86	=86	=86	=86	=86
1G	Si	1r	.	1B	est	1r	.	1r	.
=87	=87	=87	=87	=87	=87	=87	=87	=87	=87
1E	est	2r	.	[1e	do-	1g	Si	1g	Si
.	.	[2c\	Si	.	.	.	.	.	.
=88	=88	=88	=88	=88	=88	=88	=88	=88	=88
1A	do-	2c\]	.	2e\]	.	1e	est	1e	est
.	.	[2A/	est	2c#\	-lor	.	.	.	.
=89	=89	=89	=89	=89	=89	=89	=89	=89	=89
1F#	-lor	2A/]	.	2.d\	si-	1a	do-	1a	do-
.	.	[2d\	do-	.	.	.	.	.	.
.	.	.	.	4c\	.	.	.	.	.
=90	=90	=90	=90	=90	=90	=90	=90	=90	=90
[1G	si-	2d\]	.	4B\	.	2g/	-lor	2g/	-lor
.	.	.	.	4c\	.	.	.	.	.
.	.	2B\	-lor	[2d\	.	[2g/	si-	[2g/	si-
=91	=91	=91	=91	=91	=91	=91	=91	=91	=91
2G\]	.	2B\	si-	2d\]	.	2g/]	.	2g/]	.
2D\	-mi-	2A/	-mi-	2d\	-mi-	2f/	-mi-	2f/	-mi-
=92	=92	=92	=92	=92	=92	=92	=92	=92	=92
1E	-lis	1G#	-lis	1B	-lis	1e	-lis	1e	-lis
=93	=93	=93	=93	=93	=93	=93	=93	=93	=93
2r	.	2r	.	2r	.	2r	.	2r	.
[2D\	sic-	[2A/	sic-	[2d\	sic-	[2f#/	sic-	[2f#/	sic-
=94	=94	=94	=94	=94	=94	=94	=94	=94	=94
!!pagebreak:original
2D\]	.	2A/]	.	2d\]	.	2f#/]	.	2f#/]	.
2G\	-ut	2B\	-ut	2d\	-ut	2g/	-ut	2g/	-ut
=95	=95	=95	=95	=95	=95	=95	=95	=95	=95
[1F	do-	1c	do-	1f	do-	[1a	do-	[1a	do-
=96	=96	=96	=96	=96	=96	=96	=96	=96	=96
2F\]	.	1A	-lor	1c	-lor	2a/]	.	2a/]	.
2E\	-lor	.	.	.	.	2g/	-lor	2g/	-lor
=97	=97	=97	=97	=97	=97	=97	=97	=97	=97
[1D	me-	[1A	me-	[1d	me-	[1f	me-	[1f	me-
=98	=98	=98	=98	=98	=98	=98	=98	=98	=98
1D]	.	2A/]	.	1d]	.	1f]	.	1f]	.
.	.	2B\	.	.	.	.	.	.	.
=99	=99	=99	=99	=99	=99	=99	=99	=99	=99
[1C	-us.	[1c	-us.	[1G	-us.	[1e	-us.	[1e	-us.
=100	=100	=100	=100	=100	=100	=100	=100	=100	=100
1C]	.	1c]	.	1G]	.	1e]	.	1e]	.
==	==	==	==	==	==	==	==	==	==
*-	*-	*-	*-	*-	*-	*-	*-	*-	*-
!!!OTL: Caligaverunt ovuli mei 
!!!COM: Ingegneri, Marc' Antonio
!!!CDT: ca. 1535/36-1592-07-01
!!!TXO: Latin
!!!ODT: 
!!!ARL: Klasztor OO. Paulinów na Jasnej Górze
!!!voices:	5
!!title: @{OTL}, @{GTL}, ed. @{ENC}
!!!pag:
!!!GTL: Responsoria in Hebdomada majore
!!!EFL: 
!!!YEM: Creative Commons CC/BY/NC/SA 4.0
!!!ENC: Marcin Konik
!!!END: 2015-0m-dd
!!!EED: Marcin Konik
!!!EEV: 
!!!ONB: Encoded in vim by Marcin Konik
!!!CharacterEncoding: utf-8
!!!RDF**kern: l=long note in original notation
!!!RDF**kern: i=editorial accidental
!!muse2ps: z14jc180F
